X:1
T:Title
L:1/8
Q:1/4=100
M:4/4
K:Eb
V:1 treble nm="Grand Piano"
V:1
 G2 DD E2 F2 | G2 AB A2 G2- | GG G2 c3 G | B=ABc _A4- | A F2 G A2 F2 | A2 cc =B2 G2- | %6
w: ????~????? * * * *||||||
 G F2 E D2 G2 | E2 D2 C4 | z Gcd e2 c2 | d2 B2 A2 G2- | GGcd e2 c2 | d2 =B2 c4 | z cB=A B2 _AG | %13
w: |||||||
 G2 =EG G2 F2- | FFED E2 DC | DDC=B, C4 |] %16
w: |||

